X:103
T:Peacock's Tune
C:John Peacock
Z:Jack Campin, http://www.campin.me.uk/
S:Northumbrian Minstrelsy
M:6/8
L:1/8
K:G
B/c/|d>ed d>cB|gfg  d2B/c/|d>ed dcB|AAA A2
B/c/|d>ed d>cB|gfg  d2c   |Bcd  BcA|GGG G2:|
G/A/|BAB  cBc |dcd  ede   |fef  gdB|AAA A2
d/c/|BAB  cBc |def Hg2f/e/|dec  BcA|GGG G2:|

